source/img/icons/blank.svg

<svg fill="none" height="50" viewBox="0 0 50 50" width="50" xmlns="http://www.w3.org/2000/svg"><circle cx="25" cy="25" fill="#fff" r="25"/><path d="m34.2778 16.3607h-3.5833v-1.1945c0-1.3167-1.0722-2.3889-2.3889-2.3889h-13.1389c-1.3167 0-2.3889 1.0722-2.3889 2.3889v15.5278c0 1.3167 1.0722 2.3889 2.3889 2.3889h3.5834v1.1944c0 1.3168 1.0721 2.3889 2.3888 2.3889h13.1389c1.3167 0 2.3889-1.0721 2.3889-2.3889v-15.5277c0-1.3167-1.0722-2.3889-2.3889-2.3889zm-15.5277 2.3889v11.9444h-3.5834v-15.5278h13.1389v1.1945h-7.1667c-1.3167 0-2.3888 1.0722-2.3888 2.3889zm9.5555 13.1389h-5.9722c-.6584 0-1.1945-.5361-1.1945-1.1945 0-.6583.5361-1.1944 1.1945-1.1944h5.9722c.6584 0 1.1945.5361 1.1945 1.1944 0 .6584-.5361 1.1945-1.1945 1.1945zm4.7778-4.7778h-10.75c-.6584 0-1.1945-.5361-1.1945-1.1945 0-.6583.5361-1.1944 1.1945-1.1944h10.75c.6583 0 1.1944.5361 1.1944 1.1944 0 .6584-.5361 1.1945-1.1944 1.1945zm0-4.7778h-10.75c-.6584 0-1.1945-.5361-1.1945-1.1944 0-.6584.5361-1.1945 1.1945-1.1945h10.75c.6583 0 1.1944.5361 1.1944 1.1945 0 .6583-.5361 1.1944-1.1944 1.1944z" fill="#82ca9e"/></svg>

<svg width="50" height="50" viewBox="0 0 50 50" fill="none" xmlns="http://www.w3.org/2000/svg">
<circle cx="25" cy="25" r="25" fill="white"/>
<path d="M34.2778 16.3607H30.6945V15.1662C30.6945 13.8495 29.6223 12.7773 28.3056 12.7773H15.1667C13.85 12.7773 12.7778 13.8495 12.7778 15.1662V30.694C12.7778 32.0107 13.85 33.0829 15.1667 33.0829H18.7501V34.2773C18.7501 35.5941 19.8222 36.6662 21.1389 36.6662H34.2778C35.5945 36.6662 36.6667 35.5941 36.6667 34.2773V18.7496C36.6667 17.4329 35.5945 16.3607 34.2778 16.3607ZM18.7501 18.7496V30.694H15.1667V15.1662H28.3056V16.3607H21.1389C19.8222 16.3607 18.7501 17.4329 18.7501 18.7496ZM28.3056 31.8885H22.3334C21.675 31.8885 21.1389 31.3524 21.1389 30.694C21.1389 30.0357 21.675 29.4996 22.3334 29.4996H28.3056C28.964 29.4996 29.5001 30.0357 29.5001 30.694C29.5001 31.3524 28.964 31.8885 28.3056 31.8885ZM33.0834 27.1107H22.3334C21.675 27.1107 21.1389 26.5746 21.1389 25.9162C21.1389 25.2579 21.675 24.7218 22.3334 24.7218H33.0834C33.7417 24.7218 34.2778 25.2579 34.2778 25.9162C34.2778 26.5746 33.7417 27.1107 33.0834 27.1107ZM33.0834 22.3329H22.3334C21.675 22.3329 21.1389 21.7968 21.1389 21.1385C21.1389 20.4801 21.675 19.944 22.3334 19.944H33.0834C33.7417 19.944 34.2778 20.4801 34.2778 21.1385C34.2778 21.7968 33.7417 22.3329 33.0834 22.3329Z" fill="#82CA9E"/>
</svg>
